Simply-Blue-Circles/scalable/apps/yast.svg

<svg xmlns="http://www.w3.org/2000/svg" width="48" height="48" viewBox="0 0 12.7 12.7"><path d="M6.34.07a6.29 6.29 0 0 0-6.29 6.3 6.29 6.29 0 0 0 6.3 6.28 6.29 6.29 0 0 0 6.28-6.29A6.29 6.29 0 0 0 6.34.07zm-.01.94a5.4 5.4 0 0 1 5.4 5.4 5.4 5.4 0 0 1-5.4 5.41 5.4 5.4 0 0 1-5.41-5.4A5.4 5.4 0 0 1 6.32 1zM6.3 2.28l-.76.05.4.4.11.03s.49.11.87.4c.39.27.49.76.2 1.32-.18.34-.29.45-.52.72-.28.32-.52.57-.63.68a.25.25 0 0 0-.12.06L2.73 9.08a.58.58 0 0 0-.02.8l.22.18c.23.2.58.16.77-.07l2.86-3.38a.26.26 0 0 0 .05-.13c.09-.11.42-.52 1.1-1.2.81-.8.95-.4 1.1-.26.15.14.13.26.13.26.02.07.07.18.13.23l.24.2c.02 0 .43-.44.56-.59.12-.12.3-.38.3-.38a.08.08 0 0 0 0-.1s-.23-.25-.31-.25c-.24-.02-.35-.04-.47-.22s-.12-.32-.18-.43a3.4 3.4 0 0 0-.94-.83 3.87 3.87 0 0 0-1.97-.63zm-2.4.22a2.2 2.2 0 0 0-.55.06.1.1 0 0 0-.05.02c-.02.02-.03.05-.03.08a.1.1 0 0 0 .05.08l1.01.57c.1.05.14.16.13.3a1.15 1.15 0 0 1-.15.5 1.14 1.14 0 0 1-.34.4c-.12.08-.23.1-.32.05l-1-.56a.1.1 0 0 0-.12 0 .1.1 0 0 0-.03.09v.03c.16.46.49.89.85 1.1.3.16.62.2.93.12.21.08.5.23.8.52l.27.23c.28-.34.5-.55.74-.79l-.21-.23a2.5 2.5 0 0 1-.51-.92c.1-.57-.14-1.16-.65-1.44a1.81 1.81 0 0 0-.83-.2zm3.33 3.85c-.26.29-.55.58-.87.88l2.62 2.8c.25.25.7.22.98-.07.3-.3.33-.73.07-.99l-2.8-2.62zm2.2 2.7a.37.37 0 0 1 .27.64.37.37 0 1 1-.28-.63z" fill="#2c89a0"/></svg>

<?xml version="1.0" encoding="UTF-8" standalone="no"?>
<svg
   xmlns:dc="http://purl.org/dc/elements/1.1/"
   xmlns:cc="http://creativecommons.org/ns#"
   xmlns:rdf="http://www.w3.org/1999/02/22-rdf-syntax-ns#"
   xmlns:svg="http://www.w3.org/2000/svg"
   xmlns="http://www.w3.org/2000/svg"
   xmlns:sodipodi="http://sodipodi.sourceforge.net/DTD/sodipodi-0.dtd"
   xmlns:inkscape="http://www.inkscape.org/namespaces/inkscape"
   width="48"
   height="48"
   viewBox="0 0 12.7 12.7"
   version="1.1"
   id="svg4"
   sodipodi:docname="yast.svg"
   inkscape:version="0.92.4 (5da689c313, 2019-01-14)">
  <metadata
     id="metadata10">
    <rdf:RDF>
      <cc:Work
         rdf:about="">
        <dc:format>image/svg+xml</dc:format>
        <dc:type
           rdf:resource="http://purl.org/dc/dcmitype/StillImage" />
        <dc:title></dc:title>
      </cc:Work>
    </rdf:RDF>
  </metadata>
  <defs
     id="defs8" />
  <sodipodi:namedview
     pagecolor="#ffffff"
     bordercolor="#666666"
     borderopacity="1"
     objecttolerance="10"
     gridtolerance="10"
     guidetolerance="10"
     inkscape:pageopacity="0"
     inkscape:pageshadow="2"
     inkscape:window-width="1087"
     inkscape:window-height="480"
     id="namedview6"
     showgrid="false"
     inkscape:zoom="4.9166667"
     inkscape:cx="2.1355932"
     inkscape:cy="24"
     inkscape:window-x="0"
     inkscape:window-y="25"
     inkscape:window-maximized="0"
     inkscape:current-layer="svg4" />
  <path
     d="M 6.34,0.07 A 6.29,6.29 0 0 0 0.05,6.37 6.29,6.29 0 0 0 6.35,12.65 6.29,6.29 0 0 0 12.63,6.36 6.29,6.29 0 0 0 6.34,0.07 Z M 6.33,1.01 a 5.4,5.4 0 0 1 5.4,5.4 5.4,5.4 0 0 1 -5.4,5.41 A 5.4,5.4 0 0 1 0.92,6.42 5.4,5.4 0 0 1 6.32,1 Z M 6.3,2.28 5.54,2.33 l 0.4,0.4 0.11,0.03 c 0,0 0.49,0.11 0.87,0.4 0.39,0.27 0.49,0.76 0.2,1.32 C 6.94,4.82 6.83,4.93 6.6,5.2 6.32,5.52 6.08,5.77 5.97,5.88 A 0.25,0.25 0 0 0 5.85,5.94 L 2.73,9.08 a 0.58,0.58 0 0 0 -0.02,0.8 l 0.22,0.18 c 0.23,0.2 0.58,0.16 0.77,-0.07 L 6.56,6.61 A 0.26,0.26 0 0 0 6.61,6.48 C 6.7,6.37 7.03,5.96 7.71,5.28 8.52,4.48 8.66,4.88 8.81,5.02 8.96,5.16 8.94,5.28 8.94,5.28 8.96,5.35 9.01,5.46 9.07,5.51 l 0.24,0.2 C 9.33,5.71 9.74,5.27 9.87,5.12 9.99,5 10.17,4.74 10.17,4.74 a 0.08,0.08 0 0 0 0,-0.1 c 0,0 -0.23,-0.25 -0.31,-0.25 C 9.62,4.37 9.51,4.35 9.39,4.17 9.27,3.99 9.27,3.85 9.21,3.74 A 3.4,3.4 0 0 0 8.27,2.91 3.87,3.87 0 0 0 6.3,2.28 Z M 3.9,2.5 A 2.2,2.2 0 0 0 3.35,2.56 0.1,0.1 0 0 0 3.3,2.58 C 3.28,2.6 3.27,2.63 3.27,2.66 a 0.1,0.1 0 0 0 0.05,0.08 l 1.01,0.57 c 0.1,0.05 0.14,0.16 0.13,0.3 A 1.15,1.15 0 0 1 4.31,4.11 1.14,1.14 0 0 1 3.97,4.51 C 3.85,4.59 3.74,4.61 3.65,4.56 L 2.65,4 A 0.1,0.1 0 0 0 2.53,4 0.1,0.1 0 0 0 2.5,4.09 v 0.03 c 0.16,0.46 0.49,0.89 0.85,1.1 0.3,0.16 0.62,0.2 0.93,0.12 0.21,0.08 0.5,0.23 0.8,0.52 L 5.35,6.09 C 5.63,5.75 5.85,5.54 6.09,5.3 L 5.88,5.07 A 2.5,2.5 0 0 1 5.37,4.15 C 5.47,3.58 5.23,2.99 4.72,2.71 A 1.81,1.81 0 0 0 3.89,2.51 Z M 7.23,6.35 C 6.97,6.64 6.68,6.93 6.36,7.23 l 2.62,2.8 c 0.25,0.25 0.7,0.22 0.98,-0.07 0.3,-0.3 0.33,-0.73 0.07,-0.99 z m 2.2,2.7 A 0.37,0.37 0 0 1 9.7,9.69 0.37,0.37 0 1 1 9.42,9.06 Z"
     id="path2"
     inkscape:connector-curvature="0"
     style="fill:#2c89a0" />
</svg>
